X:378
T:Wild Irishman
Z: id:dc-reel-350
M:C
L:1/8
K:D Major
c|d2fd gefe|dfed cdec|d2fd gefd|fgfe d3c|!
d2fd gefe|dfed cdeg|f3d g3e|cdec d3|]!
f|edcB A2cA|eAA2 eAfA|edcB A3e|fgfe d3f|!
edcB ABcd|eAA2 eAfA|edcB A3e|fgfe d3|]!

